X: 149
T: Merry Blacksmith
R:reel
M:C
L:1/8
K:D
AB|"D"d3A BAFA|ABdA BAFA|ABde f2ed|"Em(A)"Beed egfe|
"D"d3A BAFA|ABdA BAFA|ABde fdec|dBAF D2:|
|: fg|"D"a3g ~f3 e|d3A BAFA|ABde f2 ed|"Em(A)"Beed efge|
"D"abag fgfe|dedA BAFA|ABde fdec|dBAF D2:|


